X:8
T:Laington's
T:Dillon Brown
M:4/4
F:http://blackrosetheband.googlepages.com/ABCTUNES.ABC May 2009
L:1/8
R:reel
K:Amaj
cB|:"A"[A4E4] ABce|fece faaf|ec~c2 acec|fcec "E"ABcB|
"A"AFEF A3e|fece faaf|ec(3ccc acec|1"E"BABc "A"A2cB:|2"E"BABc "A"A2ed||
|"A"ceAe ceAc|"E"BE~E2 BcdB|"A"cAAA Acec|"E"BE~E2 BcdB|
"A"AccB cedc|"E"~B3A BcdB|"A"ABce "D"faaf|"A"eccB "E"cdcB|
